X:179
T:Old Swansea Town Once More (a)
M:C|
L:1/8
P:AB(CB)
K:D
P:A "Intro"
Q:1/4=3D150
AA|\
D2FF A2dd|BcdB AFFE|DEFG ABcd|eeed cAAA|d2e2 f2e2|!
d6 A2|d2c2 BBA2|d2D2 D2DE|F2A2 AGEC|D2C2 D2C2|D6 ||!
P:B"Chorus"
Q:1/4=3D120
AA|\
B2c2 d2e2|A6 A2|d2d2 ddF2|G2B2 A2DE|
F2A2 AGEC|D2C2 D2C2|D6 AA|!
B2c2 d2e2|A6 A2|d2d2 ddF2|G2B2 A2DE|
F2A2 AGEC|D6||!
P:C"Verse"
AA|\
D2F2 A2dd|B2A2 F2d2|d2d2 e2c2|A6 A2|!
d2d2 ddF2|G2B2 A2DE|F2A2 AGEC|D2C2 D2C2|D6 ||
